icons/alien.svg

<svg width="24" height="24" viewBox="0 0 24 24" fill="none" xmlns="http://www.w3.org/2000/svg">
<path fill-rule="evenodd" clip-rule="evenodd" d="M3.00278 10.1143C3.00093 10.1921 3 10.2701 3 10.3483C3 10.4109 3.00574 10.4721 3.01673 10.5314C3.28531 16.1778 6.76288 20.9685 11.6264 22.9276C11.8661 23.0241 12.1339 23.0241 12.3736 22.9276C17.2371 20.9685 20.7147 16.1778 20.9833 10.5314C20.9943 10.4721 21 10.4109 21 10.3483C21 10.2701 20.9991 10.1921 20.9972 10.1143C20.9991 10.0186 21 9.92269 21 9.82656C21 9.74254 20.9896 9.66095 20.9701 9.58298C20.5963 4.81175 16.7584 1 12 1C7.24159 1 3.40374 4.81175 3.02987 9.58298C3.01036 9.66095 3 9.74254 3 9.82656C3 9.92269 3.00093 10.0186 3.00278 10.1143ZM5.00332 10.1191C5.11399 14.9893 7.98099 19.1218 12 20.9139C16.019 19.1218 18.886 14.9893 18.9967 10.1191C18.881 6.12885 15.7546 3 12 3C8.24537 3 5.11905 6.12885 5.00332 10.1191ZM6.30505 10.6728C6.61461 10.3736 7.08091 10.3061 7.46259 10.5053L9.46259 11.5488C9.65428 11.6489 9.8084 11.8083 9.90183 12.0033L10.9018 14.0904C11.0878 14.4786 11.0045 14.9424 10.695 15.2416C10.3854 15.5407 9.91909 15.6082 9.53741 15.4091L7.53741 14.3655C7.34572 14.2655 7.1916 14.106 7.09817 13.9111L6.09817 11.824C5.91215 11.4357 5.99549 10.972 6.30505 10.6728ZM17.695 10.6728C18.0045 10.972 18.0878 11.4357 17.9018 11.824L16.9018 13.9111C16.8084 14.106 16.6543 14.2655 16.4626 14.3655L14.4626 15.4091C14.0809 15.6082 13.6146 15.5407 13.305 15.2416C12.9955 14.9424 12.9122 14.4786 13.0982 14.0904L14.0982 12.0033C14.1916 11.8083 14.3457 11.6489 14.5374 11.5488L16.5374 10.5053C16.9191 10.3061 17.3854 10.3736 17.695 10.6728Z" fill="black"/>
</svg>

<svg
  width="24"
  height="24"
  viewBox="0 0 24 24"
  xmlns="http://www.w3.org/2000/svg"
>
  <path
    fill-rule="evenodd"
    clip-rule="evenodd"
    d="M3.003 10.114a9.843 9.843 0 0 0-.003.234c0 .063.006.124.017.183.268 5.647 3.746 10.437 8.61 12.397a1 1 0 0 0 .747 0c4.863-1.96 8.34-6.75 8.61-12.397.01-.059.016-.12.016-.183 0-.078 0-.156-.003-.234.002-.095.003-.191.003-.287 0-.084-.01-.166-.03-.244C20.596 4.812 16.758 1 12 1 7.242 1 3.404 4.812 3.03 9.583c-.02.078-.03.16-.03.244 0 .096 0 .192.003.287zm2 .005c.111 4.87 2.978 9.003 6.997 10.795 4.019-1.792 6.886-5.925 6.997-10.795C18.88 6.13 15.755 3 12 3s-6.881 3.129-6.997 7.12zm1.302.554a1 1 0 0 1 1.158-.168l2 1.044a1 1 0 0 1 .439.454l1 2.087a1 1 0 0 1-1.365 1.32l-2-1.044a1 1 0 0 1-.439-.455l-1-2.087a1 1 0 0 1 .207-1.151zm11.39 0a1 1 0 0 1 .207 1.151l-1 2.087a1 1 0 0 1-.44.455l-2 1.043a1 1 0 0 1-1.364-1.319l1-2.087a1 1 0 0 1 .44-.454l2-1.044a1 1 0 0 1 1.157.168z"
  />
</svg>
